X: 2012
T: KEEP THE COUNTRY BONNY LASSIE
R: Reel.
%R: reel
B: James Kerr "Merry Melodies" v.2 p.4 #12
Z: 2016 John Chambers <jc:trillian.mit.edu>
M: C
L: 1/8
K: A
uf |\
eAcA Bcdf | eAcA eAcA |\
dfce Bcdf | ecac e3 :|\
ug |\
aece Bcdf | aece aece |
aece Bcdf | ecac e3 ug |\
aece Bcdf | aece aece |\
aece Bcdf | ecac e3 |]

%%sep 1 1 500
%%sep 1 1 500

